X:1
T:Milster, 11.11.11.11
T:Milster, 11.11.11.11
T:John P. Campbell, 1899
T:Public Domain Courtesy of the Cyber Hymnal™
C:John P. Campbell, 1899
Z:Public Domain
Z:Courtesy of the Cyber Hymnal™
%%score ( 1 2 ) ( 3 4 )
L:1/8
M:3/4
K:F
V:1 treble 
V:2 treble 
V:3 bass 
V:4 bass 
V:1
 [Fc]2 | [Fc]2 [FB]2 [FA]2 | [Fd]2 [Ac]2 [GB]2 | [FA]2 [FG]2 [EB]2 | [FA]4 [FA]2 | %5
 [GA]2 [FA]2 [Fd]2 | [Fd]2 [FG]2 [FA]2 | [F=B]2 [Fc]2 [Fd]2 | [Ec]4 [Ec]2 | [_Ec]2 [EA]2 [EG]2 | %10
 [_EG]2 [DF]2 [Dd]2 | [Ed]2 [Ec]2 [EB]2 | [FA]4 [Ff]2 | [Ff]2 [Fe]2 [Gd]2 | [Ac]2 [GB]2 [FA]2 | %15
 [FB]2 [FA]2 [EG]2 | F4 |] %17
V:2
 x2 | x6 | x6 | x6 | x6 | x6 | x6 | x6 | x6 | x6 | x6 | x6 | x6 | x6 | x6 | x6 | F4 |] %17
V:3
 [F,A,]2 | [F,A,]2 [F,D]2 [F,C]2 | B,2 [^F,_E]2 [G,D]2 | [A,D]2 [B,D]2 C2 | [F,C]4 [F,C]2 | %5
 [E,^C]2 [D,D]2 [D,=C]2 | [D,=B,]2 [G,B,]2 [G,C]2 | [G,D]2 [G,C]2 [G,=B,]2 | [C,C]4 [C,B,]2 | %9
 [F,A,]2 [F,C]2 [F,A,]2 | [B,,A,]2 [B,,B,]2 [B,,A,]2 | [C,B,]2 [C,A,]2 [^C,G,]2 | [D,F,]4 [D,A,]2 | %13
 [D,B,]2 [D,B,]2 [E,B,]2 | [F,A,]2 [F,B,]2 [F,C]2 | [B,,D]2 [B,,C]2 [C,B,]2 | [F,A,]4 |] %17
V:4
 x2 | x6 | B,2 x4 | x4 C2 | x6 | x6 | x6 | x6 | x6 | x6 | x6 | x6 | x6 | x6 | x6 | x6 | x4 |] %17

